X:1
T:Devil's Progress, The
M:6/8
L:1/8
R:Air
S:Chappell - Popular Music of the Olden Times  (1859)
Z:AK/Fiddler's Companion
K:G
D2D D2D|E2F G2B|A2G G2F|G6|D2D D2D|E2F G2B|A2G G2F|(G3 G2)||
A|B2B dG2|F(D2 D2)A|B2c A2G|A6|GD2 GD2|D2D D2D|EE2 F2F|G6||

